X:92
T:IRWSHWMN- The Irish Waterman (Washerwoman)
S:from J. Brysson's 'A Curious Collection' n.d. (1791)
Q:1/4=120
L:1/8
M:6/8
K:G
d/c/|(BG)G (DG)G|BGB dcB|(cA)A DAA|cAc edc|\
(BG)G (DG)G|BGB dcB|(d/c/B)c Adc|BGGG2::( g/a/)|\
(bg)g dgg|bgb bag|afd Adf|fdf agf|(eg)g (dg)g|\
(cg)g (Bg)g|(d/c/B)c Adc|BGGG2:|]

